X:2
T:Altarnun volunteer (sent from Liskeard)
%%VWML:SBG-1-2-519-0
F:http://www.vwml.org/record/SBG/1/2/519
Z:Original Sibelius transcriptions by M. & S. Graebe
L:1/8
M:6/8
I:linebreak $
K:C
V:1 treble nm="P1"
V:2 treble 
V:1
 c/d/ | e2 e fe d | c2 B A2 G | A2 B/e/ c2 A | c4 z c/d/ |$ e2 e fe d | c2 B2 A2 G | e2 c dc B | %8
 c4 z A | A2 B c2 d | e2 d c2 B |$ A2 ^G A2 B | e4 z c/d/ | e2 e ag f | e2 d c2 G | A2 e d2 B | %16
 c4 z x | %17
V:2
 x | x6 | x6 | c2 c d2 B | x6 |$ x6 | x7 | x3 ef x | x6 | x6 | x6 |$ x6 | x6 | x6 | x6 | x6 | x6 | %17
T:Altarnun volunteer (Laundry)
F:http://www.vwml.org/record/SBG/1/2/519
Z:Original Sibelius transcriptions by M. & S. Graebe
M:6/8
I:linebreak $
K:C
V:1 treble nm="P1"
V:1
 G2 | e2 e fe d | c2 B A2 G | c2 e dc B | c4 :| A2 | e2 e g2 f |$ e2 d d2 c | B2 A ^G2 e | c4 G2 | %10
 e2 e gf e | d2 c A2 G | e2 e d2 c/B/ | c4 x2 | %14
T:Altarnun volunteer (Sandry alternative notation)
F:http://www.vwml.org/record/SBG/1/2/519
Z:Original Sibelius transcriptions by M. & S. Graebe
L:1/8
M:2/4
I:linebreak $
K:F
V:1 treble nm="P1" snm="Voice"
V:2 treble 
V:1
 d2 A2 | BAGF | f2 =g2 | c'd c2 | d2 F2 | B3 c | %6
V:2
 x4 | x4 | B3 _B | A2 x2 | x4 | x4 | %6
T:Altarnun volunteer (Sandry)
%%VWML:SBG-1-2--0
F:http://www.vwml.org/record/SBG/1/2/
Z:Original Sibelius transcriptions by M. & S. Graebe
M:2/4
I:linebreak $
K:F
V:1 treble nm="P1"
V:1
 G2 | ABcA | F3 A | GFEF | GAG G | ABcA |$ F3 A | GFED | C3 F | AcBB | A3 G | G2 G2 | F4 | %13
w: ||||||||||* the|Crantock _|games|
T:Altarnun volunteer (pencilled bars)
%%VWML:SBG-1-2--0
F:http://www.vwml.org/record/SBG/1/2/
Z:Original Sibelius transcriptions by M. & S. Graebe
M:2/4
I:linebreak $
K:F
V:1 treble nm="P1" snm="Voice"
V:1
 C2 | FGAB | G3 c | A2 B2 C2 FFAc | B3 A | G2 G2 | F4 | %7
w: |||* * * 20 _ in my||I was|shot|

